Newaita-dark/apps/24/com.github.kmal-kenneth.monilet.svg

<svg height="24" viewBox="0 0 24 24" width="24" xmlns="http://www.w3.org/2000/svg" xmlns:xlink="http://www.w3.org/1999/xlink"><linearGradient id="a" gradientUnits="userSpaceOnUse" x1="11.90739" x2="11.90739" y1="21.02545225" y2="22.01773525002"><stop offset="0" stop-opacity=".27451"/><stop offset="1" stop-opacity="0"/></linearGradient><linearGradient id="b"><stop offset="0" stop-opacity=".313726"/><stop offset=".222222" stop-opacity=".27451"/><stop offset="1" stop-opacity="0"/></linearGradient><radialGradient id="c" cx="450.908936" cy="189.579361" gradientTransform="matrix(.00000013 -.0585994 -.105479 -.00000008 39.097986 47.696499)" gradientUnits="userSpaceOnUse" r="21.166656" xlink:href="#b"/><radialGradient id="d" cx="450.908936" cy="189.579361" gradientTransform="matrix(-.00000013 .0585994 .105479 .00000008 -15.28321 -5.645609)" gradientUnits="userSpaceOnUse" r="21.166656" xlink:href="#b"/><radialGradient id="e" cx="450.908936" cy="189.579361" gradientTransform="matrix(-.00000013 -.0585994 .105479 -.00000008 -15.28321 47.696499)" gradientUnits="userSpaceOnUse" r="21.166656" xlink:href="#b"/><radialGradient id="f" cx="450.908936" cy="189.579361" gradientTransform="matrix(.00000013 .0585994 -.105479 .00000008 39.097985 -5.64561)" gradientUnits="userSpaceOnUse" r="21.166656" xlink:href="#b"/><linearGradient id="g" gradientUnits="userSpaceOnUse" x1="7.93826174998" x2="7.93826174998" y1="21.02545025" y2="2.17207850005"><stop offset="0" stop-color="#424242"/><stop offset="1" stop-color="#616161"/></linearGradient><path d="m4.464844 20.953125h14.882812v1.101563h-14.882812zm0 0" fill="url(#a)"/><path d="m19.347656 21.027344h1.988282v-.996094h-1.988282zm0 0" fill="url(#c)"/><path d="m4.464844 21.027344h-1.984375v.992187h1.984375zm0 0" fill="url(#d)"/><path d="m4.464844 21.027344h-1.984375v-.996094h1.984375zm0 0" fill="url(#e)"/><path d="m19.347656 21.027344h1.988282v.992187h-1.988282zm0 0" fill="url(#f)"/><path d="m3.472656 2.171875h16.867188c.550781 0 .996094.445313.996094.992187v16.867188c0 .550781-.445313.996094-.996094.996094h-16.867188c-.546875 0-.992187-.445313-.992187-.996094v-16.867188c0-.546874.445312-.992187.992187-.992187zm0 0" fill="url(#g)"/><path d="m3.472656 2.171875c-.550781 0-.992187.441406-.992187.992187v.125c0-.550781.441406-.992187.992187-.992187h16.867188c.550781 0 .996094.441406.996094.992187v-.125c0-.550781-.445313-.992187-.996094-.992187zm0 0" fill="#e6e6e6" fill-opacity=".392157"/><path d="m3.472656 21.027344c-.550781 0-.992187-.445313-.992187-.996094v-.121094c0 .546875.441406.992188.992187.992188h16.867188c.550781 0 .996094-.445313.996094-.992188v.121094c0 .550781-.445313.996094-.996094.996094zm0 0" fill-opacity=".196078"/><path d="m74.076259-168.671091h359.798975c11.748878 0 21.247971 9.499093 21.247971 21.164646v359.798974c0 11.748878-9.499093 21.247971-21.247971 21.247971h-359.798975c-11.665552 0-21.164645-9.499093-21.164645-21.247971v-359.798974c0-11.665553 9.499093-21.164646 21.164645-21.164646zm0 0" fill="none" stroke="#212121" stroke-linecap="round" stroke-width="3" transform="matrix(.0468795 0 0 .0468795 0 10.079087)"/><path d="m11.90625 5.15625c-3.550781 0-6.441406 2.890625-6.441406 6.441406v.125c.066406-3.5 2.929687-6.324218 6.441406-6.324218s6.378906 2.824218 6.441406 6.324218c0-.042968 0-.082031 0-.125 0-3.550781-2.886718-6.441406-6.441406-6.441406zm-4.46875 6.558594c-.003906.042968-.003906.082031-.003906.125 0 1.753906.992187 3.25 2.441406 3.984375.296875.148437.5.433593.539062.765625.050782-.417969-.164062-.820313-.539062-1.003906-1.417969-.722657-2.394531-2.164063-2.4375-3.871094zm8.941406 0c-.042968 1.707031-1.019531 3.148437-2.4375 3.871094-.375.183593-.589844.585937-.542968 1 .042968-.328126.246093-.613282.542968-.761719 1.449219-.734375 2.4375-2.230469 2.4375-3.984375 0-.042969 0-.082032 0-.125zm0 0" fill-opacity=".235294"/><path d="m11.90625 5.15625c-3.550781 0-6.441406 2.890625-6.441406 6.441406 0 2.503906 1.425781 4.679688 3.515625 5.742188.3125.164062.691406.148437.992187-.042969.296875-.191406.46875-.53125.449219-.882813-.019531-.355468-.230469-.671874-.546875-.828124-1.449219-.738282-2.441406-2.230469-2.441406-3.988282 0-2.492187 1.980468-4.472656 4.472656-4.472656 2.496094 0 4.472656 1.980469 4.472656 4.472656 0 1.757813-.988281 3.25-2.4375 3.988282-.316406.15625-.527344.472656-.546875.828124-.019531.351563.152344.691407.449219.882813s.675781.207031.992188.042969c2.089843-1.0625 3.511718-3.238282 3.511718-5.742188 0-3.550781-2.886718-6.441406-6.441406-6.441406zm0 0" fill-opacity=".235294"/><path d="m11.90625 5.15625c-3.550781 0-6.441406 2.890625-6.441406 6.441406 0 2.503906 1.425781 4.679688 3.515625 5.742188.3125.164062.691406.148437.992187-.042969.296875-.191406.46875-.53125.449219-.882813-.019531-.355468-.230469-.671874-.546875-.828124-1.449219-.738282-2.441406-2.230469-2.441406-3.988282 0-2.492187 1.980468-4.472656 4.472656-4.472656.355469.007812.6875-.179688.867188-.488281.179687-.304688.179687-.683594 0-.992188-.179688-.304687-.511719-.492187-.867188-.488281zm0 0" fill="#26a69a"/><path d="m11.90625 7.160156c-2.429688 0-4.371094 1.875-4.46875 4.277344 0-.019531 0-.042969 0-.066406-.003906.039062-.003906.082031-.003906.125 0 .066406.003906.128906.003906.191406.097656-2.402344 2.039062-4.28125 4.46875-4.28125 2.433594 0 4.371094 1.878906 4.46875 4.28125.003906-.0625.003906-.125.003906-.191406 0-.042969 0-.085938 0-.125 0 .023437 0 .046875-.003906.066406-.097656-2.402344-2.035156-4.277344-4.46875-4.277344zm-6.441406 4.597656v.121094c0 2.503906 1.425781 4.679688 3.515625 5.742188.324219.171875.71875.144531 1.019531-.0625.300781-.210938.460938-.570313.414062-.933594-.042968.320312-.234374.597656-.523437.75-.285156.148438-.625.148438-.910156 0-2.054688-1.046875-3.464844-3.167969-3.515625-5.617188zm12.882812 0c-.046875 2.449219-1.457031 4.570313-3.511718 5.617188-.285157.148438-.628907.148438-.914063 0s-.480469-.429688-.519531-.746094c-.046875.363282.113281.71875.414062.929688.300782.207031.695313.234375 1.019532.0625 2.089843-1.0625 3.511718-3.238282 3.511718-5.742188 0-.039062 0-.078125 0-.121094zm0 0" fill="#fff" fill-opacity=".392157"/><path d="m253.975747-105.010503c-75.742767 0-137.403546 61.660778-137.403546 137.403545 0 53.411566 30.413763 99.8238 74.992839 122.488303 6.66603 3.499666 14.748591 3.166364 21.164645-.916579 6.332729-4.082944 9.999045-11.332252 9.582419-18.831535-.416627-7.58261-4.916198-14.331965-11.665553-17.66498-30.913715-15.748496-52.07836-47.57879-52.07836-85.075209 0-53.16159 42.245966-95.407556 95.407556-95.407556 53.244915 0 95.407555 42.245966 95.407555 95.407556 0 37.496419-21.08132 69.326713-51.995034 85.075209-6.749356 3.333015-11.248926 10.08237-11.665553 17.66498-.416627 7.499283 3.24969 14.748591 9.582418 18.831535 6.332729 4.082943 14.41529 4.416245 21.164646.916579 44.579076-22.664503 74.909513-69.076737 74.909513-122.488303 0-75.742767-61.577453-137.403545-137.403545-137.403545zm0 0" fill="none" stroke="#212121" stroke-linecap="round" stroke-linejoin="round" stroke-width="3" transform="matrix(.0468795 0 0 .0468795 0 10.079087)"/><path d="m11.90625 5.210938c-3.550781 0-6.441406 2.890624-6.441406 6.441406v.125c.066406-3.5 2.929687-6.324219 6.441406-6.324219.503906-.007813.929688.363281.992188.859375.035156-.28125-.054688-.5625-.246094-.777344-.1875-.210937-.460938-.328125-.746094-.324218zm-4.46875 6.558593c-.003906.042969-.003906.082031-.003906.125 0 1.753907.992187 3.25 2.441406 3.984375.296875.148438.5.433594.539062.761719.050782-.414063-.164062-.816406-.539062-1-1.417969-.722656-2.394531-2.164063-2.4375-3.871094zm0 0" fill="#fff" fill-opacity=".392157"/><path d="m12.898438 6.015625c-.0625.5-.488282.875-.992188.867187-2.492188 0-4.472656 1.976563-4.472656 4.472657 0 .039062 0 .078125.003906.117187.0625-2.433594 2.015625-4.347656 4.46875-4.347656.285156.003906.558594-.113281.75-.328125.191406-.210937.277344-.496094.242188-.78125zm-7.433594 5.464844v.117187c0 2.503906 1.425781 4.679688 3.515625 5.742188.324219.171875.714843.148437 1.019531-.0625.300781-.207032.460938-.566406.414062-.929688-.039062.320313-.234374.601563-.519531.75-.285156.148438-.628906.148438-.914062 0-2.054688-1.046875-3.46875-3.167968-3.515625-5.617187zm0 0" fill-opacity=".235294"/><path d="m253.975747-105.010503c-75.742767 0-137.403546 61.660778-137.403546 137.403545 0 53.411566 30.413763 99.8238 74.992839 122.488303 6.66603 3.499666 14.748591 3.166364 21.164645-.916579 6.332729-4.082944 9.999045-11.332252 9.582419-18.831535-.416627-7.58261-4.916198-14.331965-11.665553-17.66498-30.913715-15.748496-52.07836-47.57879-52.07836-85.075209 0-53.16159 42.245966-95.407556 95.407556-95.407556 7.582609.166651 14.665266-3.832967 18.498233-10.415672 3.832967-6.499379 3.832967-14.581941 0-21.164645-3.832967-6.49938-10.915624-10.498998-18.498233-10.415672zm0 0" fill="none" stroke="#212121" stroke-linecap="round" stroke-linejoin="round" stroke-width="3" transform="matrix(.0468795 0 0 .0468795 0 10.079087)"/></svg>

<?xml version="1.0" encoding="UTF-8"?>
<svg xmlns="http://www.w3.org/2000/svg" xmlns:xlink="http://www.w3.org/1999/xlink" width="24px" height="24px" viewBox="0 0 24 24" version="1.1">
<defs>
<linearGradient id="linear0" gradientUnits="userSpaceOnUse" x1="254" y1="233.5" x2="254" y2="254.666672" gradientTransform="matrix(0.0468795,0,0,0.0468795,-0.0000028613,10.079089)">
<stop offset="0" style="stop-color:rgb(0%,0%,0%);stop-opacity:0.27451;"/>
<stop offset="1" style="stop-color:rgb(0%,0%,0%);stop-opacity:0;"/>
</linearGradient>
<radialGradient id="radial0" gradientUnits="userSpaceOnUse" cx="450.908936" cy="189.579361" fx="450.908936" fy="189.579361" r="21.166656" gradientTransform="matrix(0.000000130628,-0.0585994,-0.105479,-0.0000000761539,39.097986,47.696499)">
<stop offset="0" style="stop-color:rgb(0%,0%,0%);stop-opacity:0.313726;"/>
<stop offset="0.222222" style="stop-color:rgb(0%,0%,0%);stop-opacity:0.27451;"/>
<stop offset="1" style="stop-color:rgb(0%,0%,0%);stop-opacity:0;"/>
</radialGradient>
<radialGradient id="radial1" gradientUnits="userSpaceOnUse" cx="450.908936" cy="189.579361" fx="450.908936" fy="189.579361" r="21.166656" gradientTransform="matrix(-0.000000130628,0.0585994,0.105479,0.0000000761539,-15.28321,-5.645609)">
<stop offset="0" style="stop-color:rgb(0%,0%,0%);stop-opacity:0.313726;"/>
<stop offset="0.222222" style="stop-color:rgb(0%,0%,0%);stop-opacity:0.27451;"/>
<stop offset="1" style="stop-color:rgb(0%,0%,0%);stop-opacity:0;"/>
</radialGradient>
<radialGradient id="radial2" gradientUnits="userSpaceOnUse" cx="450.908936" cy="189.579361" fx="450.908936" fy="189.579361" r="21.166656" gradientTransform="matrix(-0.000000130628,-0.0585994,0.105479,-0.0000000761539,-15.28321,47.696499)">
<stop offset="0" style="stop-color:rgb(0%,0%,0%);stop-opacity:0.313726;"/>
<stop offset="0.222222" style="stop-color:rgb(0%,0%,0%);stop-opacity:0.27451;"/>
<stop offset="1" style="stop-color:rgb(0%,0%,0%);stop-opacity:0;"/>
</radialGradient>
<radialGradient id="radial3" gradientUnits="userSpaceOnUse" cx="450.908936" cy="189.579361" fx="450.908936" fy="189.579361" r="21.166656" gradientTransform="matrix(0.000000130628,0.0585994,-0.105479,0.0000000761539,39.097985,-5.64561)">
<stop offset="0" style="stop-color:rgb(0%,0%,0%);stop-opacity:0.313726;"/>
<stop offset="0.222222" style="stop-color:rgb(0%,0%,0%);stop-opacity:0.27451;"/>
<stop offset="1" style="stop-color:rgb(0%,0%,0%);stop-opacity:0;"/>
</radialGradient>
<linearGradient id="linear1" gradientUnits="userSpaceOnUse" x1="169.333328" y1="233.5" x2="169.333328" y2="-168.666656" gradientTransform="matrix(0.0468795,0,0,0.0468795,0,10.079087)">
<stop offset="0" style="stop-color:rgb(25.882354%,25.882354%,25.882354%);stop-opacity:1;"/>
<stop offset="1" style="stop-color:rgb(38.039216%,38.039216%,38.039216%);stop-opacity:1;"/>
</linearGradient>
</defs>
<g id="surface1">
<path style=" stroke:none;fill-rule:nonzero;fill:url(#linear0);" d="M 4.464844 20.953125 L 19.347656 20.953125 L 19.347656 22.054688 L 4.464844 22.054688 Z M 4.464844 20.953125 "/>
<path style=" stroke:none;fill-rule:nonzero;fill:url(#radial0);" d="M 19.347656 21.027344 L 21.335938 21.027344 L 21.335938 20.03125 L 19.347656 20.03125 Z M 19.347656 21.027344 "/>
<path style=" stroke:none;fill-rule:nonzero;fill:url(#radial1);" d="M 4.464844 21.027344 L 2.480469 21.027344 L 2.480469 22.019531 L 4.464844 22.019531 Z M 4.464844 21.027344 "/>
<path style=" stroke:none;fill-rule:nonzero;fill:url(#radial2);" d="M 4.464844 21.027344 L 2.480469 21.027344 L 2.480469 20.03125 L 4.464844 20.03125 Z M 4.464844 21.027344 "/>
<path style=" stroke:none;fill-rule:nonzero;fill:url(#radial3);" d="M 19.347656 21.027344 L 21.335938 21.027344 L 21.335938 22.019531 L 19.347656 22.019531 Z M 19.347656 21.027344 "/>
<path style=" stroke:none;fill-rule:nonzero;fill:url(#linear1);" d="M 3.472656 2.171875 L 20.339844 2.171875 C 20.890625 2.171875 21.335938 2.617188 21.335938 3.164062 L 21.335938 20.03125 C 21.335938 20.582031 20.890625 21.027344 20.339844 21.027344 L 3.472656 21.027344 C 2.925781 21.027344 2.480469 20.582031 2.480469 20.03125 L 2.480469 3.164062 C 2.480469 2.617188 2.925781 2.171875 3.472656 2.171875 Z M 3.472656 2.171875 "/>
<path style=" stroke:none;fill-rule:nonzero;fill:rgb(90.196079%,90.196079%,90.196079%);fill-opacity:0.392157;" d="M 3.472656 2.171875 C 2.921875 2.171875 2.480469 2.613281 2.480469 3.164062 L 2.480469 3.289062 C 2.480469 2.738281 2.921875 2.296875 3.472656 2.296875 L 20.339844 2.296875 C 20.890625 2.296875 21.335938 2.738281 21.335938 3.289062 L 21.335938 3.164062 C 21.335938 2.613281 20.890625 2.171875 20.339844 2.171875 Z M 3.472656 2.171875 "/>
<path style=" stroke:none;fill-rule:nonzero;fill:rgb(0%,0%,0%);fill-opacity:0.196078;" d="M 3.472656 21.027344 C 2.921875 21.027344 2.480469 20.582031 2.480469 20.03125 L 2.480469 19.910156 C 2.480469 20.457031 2.921875 20.902344 3.472656 20.902344 L 20.339844 20.902344 C 20.890625 20.902344 21.335938 20.457031 21.335938 19.910156 L 21.335938 20.03125 C 21.335938 20.582031 20.890625 21.027344 20.339844 21.027344 Z M 3.472656 21.027344 "/>
<path style="fill:none;stroke-width:3;stroke-linecap:round;stroke-linejoin:miter;stroke:rgb(12.941177%,12.941177%,12.941177%);stroke-opacity:1;stroke-miterlimit:4;" d="M 74.076259 -168.671091 L 433.875234 -168.671091 C 445.624112 -168.671091 455.123205 -159.171998 455.123205 -147.506445 L 455.123205 212.292529 C 455.123205 224.041407 445.624112 233.5405 433.875234 233.5405 L 74.076259 233.5405 C 62.410707 233.5405 52.911614 224.041407 52.911614 212.292529 L 52.911614 -147.506445 C 52.911614 -159.171998 62.410707 -168.671091 74.076259 -168.671091 Z M 74.076259 -168.671091 " transform="matrix(0.0468795,0,0,0.0468795,0,10.079087)"/>
<path style=" stroke:none;fill-rule:nonzero;fill:rgb(0%,0%,0%);fill-opacity:0.235294;" d="M 11.90625 5.15625 C 8.355469 5.15625 5.464844 8.046875 5.464844 11.597656 C 5.464844 11.640625 5.464844 11.679688 5.464844 11.722656 C 5.53125 8.222656 8.394531 5.398438 11.90625 5.398438 C 15.417969 5.398438 18.285156 8.222656 18.347656 11.722656 C 18.347656 11.679688 18.347656 11.640625 18.347656 11.597656 C 18.347656 8.046875 15.460938 5.15625 11.90625 5.15625 Z M 7.4375 11.714844 C 7.433594 11.757812 7.433594 11.796875 7.433594 11.839844 C 7.433594 13.59375 8.425781 15.089844 9.875 15.824219 C 10.171875 15.972656 10.375 16.257812 10.414062 16.589844 C 10.464844 16.171875 10.25 15.769531 9.875 15.585938 C 8.457031 14.863281 7.480469 13.421875 7.4375 11.714844 Z M 16.378906 11.714844 C 16.335938 13.421875 15.359375 14.863281 13.941406 15.585938 C 13.566406 15.769531 13.351562 16.171875 13.398438 16.585938 C 13.441406 16.257812 13.644531 15.972656 13.941406 15.824219 C 15.390625 15.089844 16.378906 13.59375 16.378906 11.839844 C 16.378906 11.796875 16.378906 11.757812 16.378906 11.714844 Z M 16.378906 11.714844 "/>
<path style=" stroke:none;fill-rule:nonzero;fill:rgb(0%,0%,0%);fill-opacity:0.235294;" d="M 11.90625 5.15625 C 8.355469 5.15625 5.464844 8.046875 5.464844 11.597656 C 5.464844 14.101562 6.890625 16.277344 8.980469 17.339844 C 9.292969 17.503906 9.671875 17.488281 9.972656 17.296875 C 10.269531 17.105469 10.441406 16.765625 10.421875 16.414062 C 10.402344 16.058594 10.191406 15.742188 9.875 15.585938 C 8.425781 14.847656 7.433594 13.355469 7.433594 11.597656 C 7.433594 9.105469 9.414062 7.125 11.90625 7.125 C 14.402344 7.125 16.378906 9.105469 16.378906 11.597656 C 16.378906 13.355469 15.390625 14.847656 13.941406 15.585938 C 13.625 15.742188 13.414062 16.058594 13.394531 16.414062 C 13.375 16.765625 13.546875 17.105469 13.84375 17.296875 C 14.140625 17.488281 14.519531 17.503906 14.835938 17.339844 C 16.925781 16.277344 18.347656 14.101562 18.347656 11.597656 C 18.347656 8.046875 15.460938 5.15625 11.90625 5.15625 Z M 11.90625 5.15625 "/>
<path style=" stroke:none;fill-rule:nonzero;fill:rgb(14.901961%,65.098041%,60.392159%);fill-opacity:1;" d="M 11.90625 5.15625 C 8.355469 5.15625 5.464844 8.046875 5.464844 11.597656 C 5.464844 14.101562 6.890625 16.277344 8.980469 17.339844 C 9.292969 17.503906 9.671875 17.488281 9.972656 17.296875 C 10.269531 17.105469 10.441406 16.765625 10.421875 16.414062 C 10.402344 16.058594 10.191406 15.742188 9.875 15.585938 C 8.425781 14.847656 7.433594 13.355469 7.433594 11.597656 C 7.433594 9.105469 9.414062 7.125 11.90625 7.125 C 12.261719 7.132812 12.59375 6.945312 12.773438 6.636719 C 12.953125 6.332031 12.953125 5.953125 12.773438 5.644531 C 12.59375 5.339844 12.261719 5.152344 11.90625 5.15625 Z M 11.90625 5.15625 "/>
<path style=" stroke:none;fill-rule:nonzero;fill:rgb(100%,100%,100%);fill-opacity:0.392157;" d="M 11.90625 7.160156 C 9.476562 7.160156 7.535156 9.035156 7.4375 11.4375 C 7.4375 11.417969 7.4375 11.394531 7.4375 11.371094 C 7.433594 11.410156 7.433594 11.453125 7.433594 11.496094 C 7.433594 11.5625 7.4375 11.625 7.4375 11.6875 C 7.535156 9.285156 9.476562 7.40625 11.90625 7.40625 C 14.339844 7.40625 16.277344 9.285156 16.375 11.6875 C 16.378906 11.625 16.378906 11.5625 16.378906 11.496094 C 16.378906 11.453125 16.378906 11.410156 16.378906 11.371094 C 16.378906 11.394531 16.378906 11.417969 16.375 11.4375 C 16.277344 9.035156 14.339844 7.160156 11.90625 7.160156 Z M 5.464844 11.757812 C 5.464844 11.800781 5.464844 11.839844 5.464844 11.878906 C 5.464844 14.382812 6.890625 16.558594 8.980469 17.621094 C 9.304688 17.792969 9.699219 17.765625 10 17.558594 C 10.300781 17.347656 10.460938 16.988281 10.414062 16.625 C 10.371094 16.945312 10.179688 17.222656 9.890625 17.375 C 9.605469 17.523438 9.265625 17.523438 8.980469 17.375 C 6.925781 16.328125 5.515625 14.207031 5.464844 11.757812 Z M 18.347656 11.757812 C 18.300781 14.207031 16.890625 16.328125 14.835938 17.375 C 14.550781 17.523438 14.207031 17.523438 13.921875 17.375 C 13.636719 17.226562 13.441406 16.945312 13.402344 16.628906 C 13.355469 16.992188 13.515625 17.347656 13.816406 17.558594 C 14.117188 17.765625 14.511719 17.792969 14.835938 17.621094 C 16.925781 16.558594 18.347656 14.382812 18.347656 11.878906 C 18.347656 11.839844 18.347656 11.800781 18.347656 11.757812 Z M 18.347656 11.757812 "/>
<path style="fill:none;stroke-width:3;stroke-linecap:round;stroke-linejoin:round;stroke:rgb(12.941177%,12.941177%,12.941177%);stroke-opacity:1;stroke-miterlimit:4;" d="M 253.975747 -105.010503 C 178.23298 -105.010503 116.572201 -43.349725 116.572201 32.393042 C 116.572201 85.804608 146.985964 132.216842 191.56504 154.881345 C 198.23107 158.381011 206.313631 158.047709 212.729685 153.964766 C 219.062414 149.881822 222.72873 142.632514 222.312104 135.133231 C 221.895477 127.550621 217.395906 120.801266 210.646551 117.468251 C 179.732836 101.719755 158.568191 69.889461 158.568191 32.393042 C 158.568191 -20.768548 200.814157 -63.014514 253.975747 -63.014514 C 307.220662 -63.014514 349.383302 -20.768548 349.383302 32.393042 C 349.383302 69.889461 328.301982 101.719755 297.388268 117.468251 C 290.638912 120.801266 286.139342 127.550621 285.722715 135.133231 C 285.306088 142.632514 288.972405 149.881822 295.305133 153.964766 C 301.637862 158.047709 309.720423 158.381011 316.469779 154.881345 C 361.048855 132.216842 391.379292 85.804608 391.379292 32.393042 C 391.379292 -43.349725 329.801839 -105.010503 253.975747 -105.010503 Z M 253.975747 -105.010503 " transform="matrix(0.0468795,0,0,0.0468795,0,10.079087)"/>
<path style=" stroke:none;fill-rule:nonzero;fill:rgb(100%,100%,100%);fill-opacity:0.392157;" d="M 11.90625 5.210938 C 8.355469 5.210938 5.464844 8.101562 5.464844 11.652344 C 5.464844 11.695312 5.464844 11.734375 5.464844 11.777344 C 5.53125 8.277344 8.394531 5.453125 11.90625 5.453125 C 12.410156 5.445312 12.835938 5.816406 12.898438 6.3125 C 12.933594 6.03125 12.84375 5.75 12.652344 5.535156 C 12.464844 5.324219 12.191406 5.207031 11.90625 5.210938 Z M 7.4375 11.769531 C 7.433594 11.8125 7.433594 11.851562 7.433594 11.894531 C 7.433594 13.648438 8.425781 15.144531 9.875 15.878906 C 10.171875 16.027344 10.375 16.3125 10.414062 16.640625 C 10.464844 16.226562 10.25 15.824219 9.875 15.640625 C 8.457031 14.917969 7.480469 13.476562 7.4375 11.769531 Z M 7.4375 11.769531 "/>
<path style=" stroke:none;fill-rule:nonzero;fill:rgb(0%,0%,0%);fill-opacity:0.235294;" d="M 12.898438 6.015625 C 12.835938 6.515625 12.410156 6.890625 11.90625 6.882812 C 9.414062 6.882812 7.433594 8.859375 7.433594 11.355469 C 7.433594 11.394531 7.433594 11.433594 7.4375 11.472656 C 7.5 9.039062 9.453125 7.125 11.90625 7.125 C 12.191406 7.128906 12.464844 7.011719 12.65625 6.796875 C 12.847656 6.585938 12.933594 6.300781 12.898438 6.015625 Z M 5.464844 11.480469 C 5.464844 11.519531 5.464844 11.558594 5.464844 11.597656 C 5.464844 14.101562 6.890625 16.277344 8.980469 17.339844 C 9.304688 17.511719 9.695312 17.488281 10 17.277344 C 10.300781 17.070312 10.460938 16.710938 10.414062 16.347656 C 10.375 16.667969 10.179688 16.949219 9.894531 17.097656 C 9.609375 17.246094 9.265625 17.246094 8.980469 17.097656 C 6.925781 16.050781 5.511719 13.929688 5.464844 11.480469 Z M 5.464844 11.480469 "/>
<path style="fill:none;stroke-width:3;stroke-linecap:round;stroke-linejoin:round;stroke:rgb(12.941177%,12.941177%,12.941177%);stroke-opacity:1;stroke-miterlimit:4;" d="M 253.975747 -105.010503 C 178.23298 -105.010503 116.572201 -43.349725 116.572201 32.393042 C 116.572201 85.804608 146.985964 132.216842 191.56504 154.881345 C 198.23107 158.381011 206.313631 158.047709 212.729685 153.964766 C 219.062414 149.881822 222.72873 142.632514 222.312104 135.133231 C 221.895477 127.550621 217.395906 120.801266 210.646551 117.468251 C 179.732836 101.719755 158.568191 69.889461 158.568191 32.393042 C 158.568191 -20.768548 200.814157 -63.014514 253.975747 -63.014514 C 261.558356 -62.847863 268.641013 -66.847481 272.47398 -73.430186 C 276.306947 -79.929565 276.306947 -88.012127 272.47398 -94.594831 C 268.641013 -101.094211 261.558356 -105.093829 253.975747 -105.010503 Z M 253.975747 -105.010503 " transform="matrix(0.0468795,0,0,0.0468795,0,10.079087)"/>
</g>
</svg>
